!!!OTL: Zhangsheng you si
!!!ARE: Asia, China,ÿLiaoning, Shenyang
!! III, 262
!!!SCT: C1556
!!!YEM: Copyright 1995, estate of Helmut Schaffrath.
**kern
*ICvox
*Ivox
*M2/4
*k[]
*C:
{8.ee
16dd
8ee
8gg
=1
8a
8cc
8ee
8dd
=2
4.cc
8a
=3
2ee}
=4
{8dd
8ee
8dd
8cc
=5
8dd
8b
4a
=6
8.g
16a
4cc
=7
8r
4a
8g
=8
8a
8a
8g
8d
=9
2e}
=10
{8.b
16b
8a
8a
=11
8e
8g
8a
8e
=12
4g
4g}
=13
{8r
4a
8e
=14
8d
8c
8d
[8d
=15
8d]
8g
8e
8g
=16
8d
4d
16e
16g
=17
2d}
=18
{8.ee
16gg
8ee
8dd
=19
4.cc
8a
=20
8r
4ee
8dd
=21
4.cc
8a}
=22
{8.g
16a
8cc
8cc
=23
8r
4a
8g
=24
8a
16a
16cc
8g
8d
=25
2e}
=26
{8.e
16g
8a
8e
=27
4.g
8e
=28
4.g
8a
=29
2cc
=30
8.a
16cc
4cc
=31
8a
8cc
8a
8g
=32
8.a
16d
4e}
=33
{4r
4ee
=34
8dd
8ee
8dd
8b
=35
8dd
8b
[4a
=36
8a]
8ee
8dd
8b
=37
8a
4a
8g
=38
2a}
==
!!!AGN: Xiaodiao. Xixiangji de gushi
!!!AMT: simple duple
!!!AIN: vox
!!!EED: Helmut Schaffrath
!!!EEV: 1.0
*-
!!!ONB: Tied note syntax fixed by Craig Sapp, 2004/05/03/
